64x64/apps/2064-read-only-memories.svg

<svg height="64" width="64" xmlns="http://www.w3.org/2000/svg"><circle cx="32" cy="33" opacity=".2" r="28"/><circle cx="32" cy="32" fill="#4fc8f3" r="28"/><path d="m32 4a28 28 0 0 0 -28 28 28 28 0 0 0 .021.586 28 28 0 0 1 27.979-27.586 28 28 0 0 1 27.979 27.414 28 28 0 0 0 .021-.414 28 28 0 0 0 -28-28z" fill="#f4f4f7" opacity=".2"/><path d="m22.97 21.973a2 2 0 0 0 -1.97 2.027v9a2 2 0 1 0 4 0v-9a2 2 0 0 0 -2.03-2.027zm18 0a2 2 0 0 0 -1.97 2.027v9a2 2 0 1 0 4 0v-9a2 2 0 0 0 -2.03-2.027zm-28.97 14.027a2 2 0 1 0 0 4h8a2 2 0 1 0 0-4zm34 0a2 2 0 1 0 0 4h8a2 2 0 1 0 0-4zm-6 3a2 2 0 1 0 0 4h-17a2 2 0 1 0 0 4h19a2 2 0 0 0 1.11-.336c1.005-.67 1.762-1.527 2.072-2.559.309-1.03.079-2.057-.268-2.75-.693-1.386-1.805-2.02-1.805-2.02a2 2 0 0 0 -1.109-.335z" opacity=".2"/><g stroke-linecap="round" stroke-linejoin="round" stroke-width="4"><path d="m23 44h19c3-2 0-4 0-4h-2" fill="none" stroke="#f4f4f7"/><path d="m12 37h8m26 0h8" fill="none" stroke="#f8bfd5"/><path d="m23 32v-9m18 9v-9" stroke="#f4f4f7"/></g><path d="m32 4.898a28 28 0 0 0 -2 .073v4.927c0 1.108.892 2 2 2s2-.892 2-2v-4.898a28 28 0 0 0 -2-.102zm-11.945 2.71a28 28 0 0 0 -1.842.96 14 10 0 0 0 13.787 8.33 14 10 0 0 0 13.803-8.34 28 28 0 0 0 -1.858-.945 12 8 0 0 1 -11.945 7.285 12 8 0 0 1 -11.945-7.29z" opacity=".2"/><path d="m32 4a28 28 0 0 0 -2 .072v4.928c0 1.108.892 2 2 2s2-.892 2-2v-4.898a28 28 0 0 0 -2-.102zm-11.945 2.709a28 28 0 0 0 -1.842.96 14 10 0 0 0 13.787 8.331 14 10 0 0 0 13.803-8.34 28 28 0 0 0 -1.858-.945 12 8 0 0 1 -11.945 7.285 12 8 0 0 1 -11.945-7.291z" fill="#f4f4f7"/></svg>

<svg height="64" width="64" xmlns="http://www.w3.org/2000/svg">
    <circle cx="32" cy="33" opacity=".2" r="28"/>
    <circle cx="32" cy="32" fill="#4fc8f3" r="28"/>
    <path d="M32 4A28 28 0 0 0 4 32a28 28 0 0 0 .021.586A28 28 0 0 1 32 5a28 28 0 0 1 27.979 27.414A28 28 0 0 0 60 32 28 28 0 0 0 32 4z" fill="#f4f4f7" opacity=".2"/>
    <path d="M22.97 21.973A2 2 0 0 0 21 24v9a2 2 0 1 0 4 0v-9a2 2 0 0 0-2.03-2.027zm18 0A2 2 0 0 0 39 24v9a2 2 0 1 0 4 0v-9a2 2 0 0 0-2.03-2.027zM12 36a2 2 0 1 0 0 4h8a2 2 0 1 0 0-4zm34 0a2 2 0 1 0 0 4h8a2 2 0 1 0 0-4zm-6 3a2 2 0 1 0 0 4H23a2 2 0 1 0 0 4h19a2 2 0 0 0 1.11-.336c1.005-.67 1.762-1.527 2.072-2.559.309-1.03.079-2.057-.268-2.75-.693-1.386-1.805-2.02-1.805-2.02A2 2 0 0 0 42 39z" opacity=".2"/>
    <g stroke-linecap="round" stroke-linejoin="round" stroke-width="4">
        <path d="M23 44h19c3-2 0-4 0-4h-2" fill="none" stroke="#f4f4f7"/>
        <path d="M12 37h8m26 0h8" fill="none" stroke="#f8bfd5"/>
        <path d="M23 32v-9m18 9v-9" stroke="#f4f4f7"/>
    </g>
    <path d="M32 4.898a28 28 0 0 0-2 .073v4.927c0 1.108.892 2 2 2s2-.892 2-2V5a28 28 0 0 0-2-.102zm-11.945 2.71a28 28 0 0 0-1.842.96A14 10 0 0 0 32 16.898a14 10 0 0 0 13.803-8.34 28 28 0 0 0-1.858-.945A12 8 0 0 1 32 14.898a12 8 0 0 1-11.945-7.29z" opacity=".2"/>
    <path d="M32 4a28 28 0 0 0-2 .072V9c0 1.108.892 2 2 2s2-.892 2-2V4.102A28 28 0 0 0 32 4zM20.055 6.709a28 28 0 0 0-1.842.96A14 10 0 0 0 32 16a14 10 0 0 0 13.803-8.34 28 28 0 0 0-1.858-.945A12 8 0 0 1 32 14a12 8 0 0 1-11.945-7.291z" fill="#f4f4f7"/>
</svg>
